flaticon/gastronomy/spoon.svg

<svg xmlns="http://www.w3.org/2000/svg" width="32" height="32" viewBox="0 0 24 24">
    <path d="M 12.40625 11.855469 L 12.40625 8.898438 C 13.804688 8.597656 14.847656 6.765625 14.847656 4.472656 C 14.847656 1.964844 13.597656 0 12 0 C 10.402344 0 9.152344 1.964844 9.152344 4.472656 C 9.152344 6.765625 10.195312 8.597656 11.59375 8.898438 L 11.59375 11.855469 C 10.894531 12.035156 10.371094 12.667969 10.371094 13.421875 L 10.371094 22.371094 C 10.371094 23.269531 11.101562 24 12 24 C 12.898438 24 13.628906 23.269531 13.628906 22.371094 L 13.628906 13.421875 C 13.628906 12.667969 13.105469 12.035156 12.40625 11.855469 Z M 9.964844 4.472656 C 9.964844 2.488281 10.898438 0.8125 12 0.8125 C 13.101562 0.8125 14.035156 2.488281 14.035156 4.472656 C 14.035156 6.460938 13.101562 8.136719 12 8.136719 C 10.898438 8.136719 9.964844 6.460938 9.964844 4.472656 Z M 12.8125 22.371094 C 12.8125 22.820312 12.449219 23.1875 12 23.1875 C 11.550781 23.1875 11.1875 22.820312 11.1875 22.371094 L 11.1875 13.421875 C 11.1875 12.976562 11.550781 12.609375 12 12.609375 C 12.449219 12.609375 12.8125 12.976562 12.8125 13.421875 Z M 12.8125 22.371094"/>
    <path d="M12.40625 14.238281C12.40625 14.460938 12.226562 14.644531 12 14.644531 11.773438 14.644531 11.59375 14.460938 11.59375 14.238281 11.59375 14.011719 11.773438 13.832031 12 13.832031 12.226562 13.832031 12.40625 14.011719 12.40625 14.238281zM12.40625 15.863281C12.40625 16.089844 12.226562 16.269531 12 16.269531 11.773438 16.269531 11.59375 16.089844 11.59375 15.863281 11.59375 15.640625 11.773438 15.457031 12 15.457031 12.226562 15.457031 12.40625 15.640625 12.40625 15.863281zM12.40625 15.863281"/>
</svg>

<svg xmlns="http://www.w3.org/2000/svg" width="32" height="32" viewBox="0 0 24 24">
    <path d="M12.406 11.855V8.898c1.399-.3 2.442-2.132 2.442-4.425C14.848 1.965 13.598 0 12 0c-1.598 0-2.848 1.965-2.848 4.473 0 2.293 1.043 4.125 2.442 4.425v2.957c-.7.18-1.223.813-1.223 1.567v8.95c0 .898.73 1.628 1.629 1.628a1.63 1.63 0 0 0 1.629-1.629v-8.95c0-.753-.524-1.386-1.223-1.566zM9.965 4.473c0-1.985.933-3.66 2.035-3.66s2.035 1.675 2.035 3.66c0 1.988-.933 3.664-2.035 3.664S9.965 6.46 9.965 4.473zm2.848 17.898c0 .45-.364.817-.813.817a.815.815 0 0 1-.813-.817v-8.95c0-.444.364-.812.813-.812.45 0 .813.368.813.813zm0 0"/>
    <path d="M12.406 14.238a.406.406 0 1 1-.812 0 .406.406 0 0 1 .812 0zm0 0M12.406 15.863c0 .227-.18.407-.406.407a.406.406 0 1 1 .406-.406zm0 0"/>
</svg>
